X:2421
T:Polska Nr 5
B:Traditioner av Svenska Folkdansar Häfte 1, nr 5
B:http://www.smus.se/earkiv/fmk/browselarge.php?lang=sw&katalogid=MMD+30&bildnr=00003
M:3/4
Z:2012-08-01 Per Oldberg
L:1/8
O:Västergötland
R:Polska
V:1
V:2 bass
V:3 bass merge
K:F
V:1
f2 f>A f>a | a>g a/g/f/g/ a2 | f2 f>A f>a | [gB]>[eG] [g2B2][f2A2] :: 
V:2
[A,2C2][A,2C2][A,2C2] | [B,2C2][B,2C2][A,2C2] | [A,2C2][A,2C2][A,2C2] | C>C C2C2 :: 
V:3
F,2F,2F,2 | C,2C,2F,2 | F,2F,2F,2 | C,>C, C,2F,2 ::
V:1
a2 a>f d2 | g2 g>e c2 | d2 d>B A>B | c>d c>B A2 | F>A c>e f>a | [gB]>[eG] [g2B2][f2A2] :|  
V:2
F,2A,2=B,2 | E,2G,2C2 | B,2B,2D2 | G,2C2C2 | [A,2C2][A,2C2][A,2C2] | C>C C2C2 :| 
V:3
F,6 | E,6 | G,2G,2F,2 | E,2C,2F,2 | F,2F,2F,2 | C,>C, C,2F,2 :| 
(:musicend:)
(:music:)
